X: 263
%
U:~=!turn!
T: John Roy Stewart
C:
O:Scotland
B:Keith Norman MacDonald : "The Skye collection of the best reels & strathspeys extant" : 1887
Z:Ralph Palmer
R:Strathspey
M:C
L:1/8
K:D aeolian
f | {/d}c<AA>G {DE}F>GA>d | c<FA>F c<FA>f | {/d}c>BA>G {DE}F>GA>F D<dTd>^c {/c}d2 d :|
f | {AB}(c>d)f>g Ta>f(g>a) | ~f>c (d/c/).B/.A/ ~f<cc>f | (~c>d)f>g Ta>f(g>a) | c<a{/a}g>f {/^c}d2 (d>f) |
(~c>d)f>g Ta>f(g>a) | ~f>c (d/c/).B/.A/ f>c Tc(f/g/) | (a>f)g>e f>de>c | A<dTd>^c d2 d |]


